set-center.svg

<svg fill="currentColor" viewBox="0 0 24 24"><path d="M9 5a7 7 0 0 0-7 7 7 7 0 0 0 7 7c1.04 0 2.06-.24 3-.68.94.44 1.96.68 3 .68a7 7 0 0 0 7-7 7 7 0 0 0-7-7c-1.04 0-2.06.24-3 .68-.94-.44-1.96-.68-3-.68m0 2c.34 0 .67.03 1 .1-1.28 1.31-2 3.07-2 4.9s.72 3.59 2 4.89c-.33.07-.66.11-1 .11a5 5 0 0 1-5-5 5 5 0 0 1 5-5m6 0a5 5 0 0 1 5 5 5 5 0 0 1-5 5c-.34 0-.67-.03-1-.1 1.28-1.31 2-3.07 2-4.9s-.72-3.59-2-4.89c.33-.07.66-.11 1-.11"/></svg>

<svg  viewBox="0 0 24 24" fill="currentColor"><path  d="M9,5A7,7 0 0,0 2,12A7,7 0 0,0 9,19C10.04,19 11.06,18.76 12,18.32C12.94,18.76 13.96,19 15,19A7,7 0 0,0 22,12A7,7 0 0,0 15,5C13.96,5 12.94,5.24 12,5.68C11.06,5.24 10.04,5 9,5M9,7C9.34,7 9.67,7.03 10,7.1C8.72,8.41 8,10.17 8,12C8,13.83 8.72,15.59 10,16.89C9.67,16.96 9.34,17 9,17A5,5 0 0,1 4,12A5,5 0 0,1 9,7M15,7A5,5 0 0,1 20,12A5,5 0 0,1 15,17C14.66,17 14.33,16.97 14,16.9C15.28,15.59 16,13.83 16,12C16,10.17 15.28,8.41 14,7.11C14.33,7.04 14.66,7 15,7Z"/></svg>
